X: 24
T:Pat on Parade (#74)
M:4/4
L:1/8
S:Capt. F. O'Neill
R:March
K:D
(3ABc|d2 dd d2 ef|gece d2 ef|gfgb afdf|edcB ABcA|
dfef d2 ef|gece d2 ef|gfgb afef|d2 dd d2||
ef|gfga b2 ag|fefg a2 fe|dcde f2 ed|eaab agfe|
d2 dd d2 ef|gece d2 ef|gfgb afef|d2 dd d2||
%
% This March or Hornpipe tune noted from memory
% may be worthy of preservation, but when or
% where it as acquired the writer is unable to state.
% Suggestion supplied the name.

